fa/svgs/regular/bookmark.svg

<svg xmlns="http://www.w3.org/2000/svg" viewBox="0 0 384 512"><!--! Font Awesome Free 6.1.1 by @fontawesome - https://fontawesome.com License - https://fontawesome.com/license/free (Icons: CC BY 4.0, Fonts: SIL OFL 1.1, Code: MIT License) Copyright 2022 Fonticons, Inc.--><path d="M336 0H48C21.49 0 0 21.49 0 48v431.9c0 24.7 26.79 40.08 48.12 27.64L192 423.6l143.9 83.93c21.3 11.57 48.1-2.93 48.1-27.63V48c0-26.51-21.5-48-48-48zm0 452-144-84-144 84V54c0-3.37 2.63-6 5.1-6h276c4.3 0 6.9 2.63 6.9 6v398z"/></svg>

<svg xmlns="http://www.w3.org/2000/svg" viewBox="0 0 384 512"><!--! Font Awesome Free 6.2.1 by @fontawesome - https://fontawesome.com License - https://fontawesome.com/license/free (Icons: CC BY 4.0, Fonts: SIL OFL 1.1, Code: MIT License) Copyright 2022 Fonticons, Inc. --><path d="M336 0h-288C21.49 0 0 21.49 0 48v431.9c0 24.7 26.79 40.08 48.12 27.64L192 423.6l143.9 83.93C357.2 519.1 384 504.6 384 479.9V48C384 21.49 362.5 0 336 0zM336 452L192 368l-144 84V54C48 50.63 50.63 48 53.1 48h276C333.4 48 336 50.63 336 54V452z"/></svg>
